!!!!SEGMENT: pl-sa--l-1636--102_anonim--o-duszo-wszelka.krn
!!!cenid: 17xx:809
!!!COM: Anonim
!!!COM-rismid: pe30004985
!!!CDT:
!!!CNT:
!!!OTL: O duszo wszelka
!!!PDT:
!!!AGN: Sacred
!!!SMS-siglum: PL-SA
!!!SMS-shelfmark: L 1636
!!!SMS-shelfwork: 102 W
!!!SMS-variant:
!!!SMS-altvar:
!!!NIFC-rismid: 1001087526
!!!URL-scan: http://repozytorium.nifc.pl/skany/pl-sa-nut--l1636
!!!ONB-nifc: 52v, skan 0044, s. 1-2
!!!AIN: 2 empty
!!!key:
**kern	**kern
*part2	*part1
*staff2	*staff1
*Iempty	*Iempty
*	*I"Keyb
*clefF4	*clefC1
*k[b-]	*k[b-]
*F:	*F:
*M2/2	*M2/2
*met(c|)	*met(c|)
=1	=1
*^	*^
!	!	!	!LO:SIC:o:s:=:v:all\right
!LO:TX:a:t=O duszo wszelka	!	!	!
4G/	4GG/	4b-/	4g\
8G/L	8GG/L	8b-/L	8g\L
8F/J	8FF/J	8cc/J	8a\J
8BB-/L	2ryy	4dd/ 4b-/	2f/
8C/	.	.	.
8D/	.	4dd/ 4b-/	.
8E/J	.	.	.
*v	*v	*	*
=2	=2	=2
8F\L	4cc/	4a\
8G\	.	.
!LO:SIC:o:s:=:v:dziura	!	!
8A\yy	8cc/L	4a\
8F#X\J	8dd/J	.
!LO:TX:t=P:problem=mixed beam	!	!
8G\L	2b-/ 2g/	2ryy
16GG/L	.	.
16AA/JJ	.	.
8BB-/L	.	.
8C/J	.	.
*	*v	*v
=3	=3
*^	*^
2D/	2DD/	2a/	2f#X\
!LO:TX:t=P:problem=mixed beam	!	!	!
8DD/L	2ryy	4a/	4f#\
16D\L	.	.	.
16C\JJ	.	.	.
8BB-/L	.	4b-/	4g\
16AA/L	.	.	.
16GG/JJ	.	.	.
*v	*v	*	*
=4	=4	=4
!LO:TX:t=P:problem=mixed beam	!	!
8FF/L	4cc/	4a\
16F\L	.	.
16E\JJ	.	.
8D/L	4dd/	4b-\
16C/L	.	.
16BB-/JJ	.	.
!LO:TX:t=P:problem=mixed beam	!	!
8CC/L	4ee-X/	4cc\
8C\J	.	.
8D\L	4dd/	4b-\
8BB-\J	.	.
=5	=5	=5
*^	*	*
!LO:TX:t=P:problem=mixed beam	!	!	!
8E-X\L	2ryy	2cc/	8b-\L
8C\	.	.	16a\L
.	.	.	16g\JJ
8F\	.	.	4a\
8FF/J	.	.	.
2F/ 2D/	2BB-\	2dd/ 2b-/	2f\
*v	*v	*	*
!!LO:LB:g=original
=6!|:	=6!|:	=6!|:
!LO:TX:t=P:problem=mixed beam	!	!
8B-\L	4dd/ 4b-/	2f/
16BB-\L	.	.
16C\JJ	.	.
8D/L	4dd/ 4b-/	.
8BB-/J	.	.
*	*v	*v
!LO:TX:t=P:problem=mixed beam	!
8F\L	2cc/ 2a/
16FF/L	.
16GG/JJ	.
!LO:TX:t=P:problem=mixed beam	!
8AA/L	.
8F#X\J	.
=7	=7
*	*^
!LO:SIC:o:s:=:v:TX:a:t=problem&colon; brak główki nuty	!	!
8G\Lyy	2b-/ 2g/	2ryy
16G\L	.	.
16F\JJ	.	.
!LO:TX:a:t=P:♭above:problem	!	!
8E-X\L	.	.
16D\L	.	.
16C\JJ	.	.
8F\L	4cc/	4a\
!LO:TX:a:t=P:♭above:problem	!	!
8E-X\J	.	.
8D\L	[4dd/	[4b-\
16C\L	.	.
16BB-\JJ	.	.
=8	=8	=8
8D\L	4dd/]	4b-\]
!LO:TX:a:t=P:♭above:problem	!	!
8E-X\J	.	.
!LO:TX:t=P:problem=mixed beam	!	!
8F\L	8cc/	8b-\L
8FF/J	8ee/	8a\J
2D/ 2BB-/	2F 2ryy	2dd/ 2b-/ 2f/
=9	=9	=9
!LO:TX:t=P:problem=mixed beam	!	!
8DD/L	4a/	4f#X\
16D\L	.	.
16C\JJ	.	.
8BB-/L	4b-/	4g\
16AA/L	.	.
16GG/JJ	.	.
!LO:TX:t=P:problem=mixed beam	!	!
8FF/L	4cc/	4a\
16F\L	.	.
16E\JJ	.	.
8D/L	4dd/	4b-\
16C/L	.	.
16BB-/JJ	.	.
=10	=10	=10
*	*	*^
8C\L	4cc/	8e\L	2.ryy
8D\	.	8f\J	.
8E\	4b-/	4g\	.
8BB-\J	.	.	.
8C/L	2a/	8g\L	.
8AA/J	.	16f\L	.
.	.	16e\JJ	.
8D/L	.	8f\L 8d\	4g/
8DD/J	.	8c\J	.
*	*v	*v	*v
=11	=11
!LO:SIC:o:s:=:v:kółko nad pięciolinią	!LO:SIC:o:s:=:v:kółko nad pięciolinią
1G/ 1D/ 1BB-/ 1GG/	1g/ 1d/ 1B#X/
==	==
*-	*-
!!!system-decoration: [(s1,s2)]
!!!EED: Leszek Kubiak
!!!EEV: 2020-12-09
!!!ENC: Marta Chmielewska
!!!END: 2020-06-15
